hero/solid/arrow-up-left.svg

<svg width="24" height="24" viewBox="0 0 24 24" fill="none" xmlns="http://www.w3.org/2000/svg">
<path fill-rule="evenodd" clip-rule="evenodd" d="M5.25 6.31066L5.25 15.75C5.25 16.1642 4.91421 16.5 4.5 16.5C4.08579 16.5 3.75 16.1642 3.75 15.75L3.75 4.5C3.75 4.30109 3.82902 4.11032 3.96967 3.96967C4.11032 3.82902 4.30109 3.75 4.5 3.75L15.75 3.75C16.1642 3.75 16.5 4.08579 16.5 4.5C16.5 4.91421 16.1642 5.25 15.75 5.25L6.31066 5.25L20.0303 18.9697C20.3232 19.2626 20.3232 19.7374 20.0303 20.0303C19.7374 20.3232 19.2626 20.3232 18.9697 20.0303L5.25 6.31066Z" fill="#0F172A"/>
</svg>

<svg viewBox="0 0 24 24" xmlns="http://www.w3.org/2000/svg"><path fill-rule="evenodd" d="M5.25 6.31v9.44 0c0 .41-.34.75-.75.75 -.42 0-.75-.34-.75-.75V4.5v0c0-.42.33-.75.75-.75h11.25v0c.41 0 .75.33.75.75 0 .41-.34.75-.75.75H6.31l13.72 13.72v0c.3.28.31.75.03 1.06 -.29.3-.76.31-1.06.03 -.02-.02-.03-.03-.04-.04L5.24 6.3Z"/></svg>
